packages/core/src/svgs/gains.svg

<svg width="24" height="24" viewBox="0 0 24 24" fill="none" xmlns="http://www.w3.org/2000/svg">
<g clip-path="url(#clip0_31_10603)">
<path d="M0 0H24V24H0V0Z" fill="url(#paint0_linear_31_10603)"/>
<path d="M13.097 10.217C12.737 10.187 12.5699 10.1742 12.2313 10.3627C10.6297 11.2455 9.02969 12.1313 7.43131 13.0199C7.19196 13.1656 6.93387 13.2781 6.66416 13.3542C5.45131 13.607 4.37559 12.4542 4.81273 11.3313C5.03559 10.757 5.38274 10.5813 5.99559 10.2427C8.61845 8.78559 11.2456 7.33702 13.877 5.89273C14.6913 5.44702 15.467 5.46416 16.2127 5.95273C16.6339 6.21291 16.9403 6.62353 17.0699 7.1013C17.1213 7.29845 17.147 7.65845 17.1427 8.17273V16.6542C17.1427 17.5413 16.5556 18.3899 15.6084 18.4242C15.3513 18.4327 15.0942 18.4327 14.8584 18.3384C14.5259 18.1773 14.2437 17.9285 14.0421 17.6189C13.8404 17.3093 13.7271 16.9506 13.7142 16.5813V11.2499C13.7142 10.8084 13.6542 10.4784 13.2642 10.2642C13.2124 10.2369 13.1554 10.2208 13.097 10.217Z" fill="url(#paint1_linear_31_10603)"/>
<path d="M9.98132 18.1071C9.14994 17.9174 8.38114 17.5175 7.74847 16.9457C7.60704 16.8171 7.44847 16.6714 7.41418 16.4914C7.35418 16.1914 7.57704 16.0457 7.82132 15.9086L9.95561 14.7171C10.2213 14.5671 10.5642 14.6571 10.6842 14.9314C10.7142 14.9957 10.7142 15.1028 10.7142 15.2614V17.5157C10.7142 17.7086 10.6885 17.8457 10.637 17.9271C10.4956 18.1543 10.2428 18.1714 9.98132 18.1071Z" fill="url(#paint2_linear_31_10603)"/>
<path d="M13.0456 10.2127C12.7199 10.1827 12.5527 10.1827 12.2313 10.3627C10.6297 11.2455 9.02969 12.1312 7.43131 13.0198C7.19196 13.1656 6.93387 13.278 6.66416 13.3541C5.45131 13.607 4.37559 12.4541 4.81273 11.3312C4.97131 10.9241 5.19416 10.7184 5.52845 10.5084C7.79988 9.76696 11.4427 8.99981 13.0456 10.2084V10.2127Z" fill="url(#paint3_linear_31_10603)"/>
<path d="M12.96 10.2044L13.0971 10.2172C13.1657 10.2215 13.2257 10.2386 13.2685 10.2601C13.6114 10.4529 13.6971 10.7058 13.71 11.0658C13.7657 7.62007 11.0271 7.86436 10.0243 8.01436L5.99568 10.2429L5.93568 10.2772C5.78568 10.3586 5.65282 10.4315 5.53711 10.5044C7.78711 9.76293 11.3743 9.00436 12.96 10.2044Z" fill="url(#paint4_linear_31_10603)"/>
</g>
<defs>
<linearGradient id="paint0_linear_31_10603" x1="4.46571" y1="4.16143" x2="29.2071" y2="32.58" gradientUnits="userSpaceOnUse">
<stop stop-color="#1A1E21"/>
<stop offset="1" stop-color="#06060A"/>
</linearGradient>
<linearGradient id="paint1_linear_31_10603" x1="10.9284" y1="5.5713" x2="10.9284" y2="18.4284" gradientUnits="userSpaceOnUse">
<stop stop-color="#4AF78B"/>
<stop offset="1" stop-color="#23BFEF"/>
</linearGradient>
<linearGradient id="paint2_linear_31_10603" x1="7.70989" y1="15.75" x2="10.2428" y2="17.7" gradientUnits="userSpaceOnUse">
<stop stop-color="#3CD1C6"/>
<stop offset="1" stop-color="#34C2D8"/>
</linearGradient>
<linearGradient id="paint3_linear_31_10603" x1="10.4313" y1="9.57838" x2="5.83702" y2="13.2812" gradientUnits="userSpaceOnUse">
<stop stop-color="#226A82"/>
<stop offset="1" stop-color="#55DEB0"/>
</linearGradient>
<linearGradient id="paint4_linear_31_10603" x1="11.2671" y1="7.9415" x2="9.7714" y2="11.7429" gradientUnits="userSpaceOnUse">
<stop stop-color="#2A687F"/>
<stop offset="1" stop-color="#6CF7B6"/>
</linearGradient>
<clipPath id="clip0_31_10603">
<rect width="24" height="24" fill="white"/>
</clipPath>
</defs>
</svg>

<svg xmlns="http://www.w3.org/2000/svg" width="24" height="24" fill="none" viewBox="0 0 24 24"><g clip-path="url(#a)"><path fill="url(#b)" d="M0 0h24v24H0z"/><path fill="url(#c)" d="M13.097 10.217c-.36-.03-.527-.043-.866.146a1513 1513 0 0 0-4.8 2.657q-.36.22-.767.334c-1.213.253-2.288-.9-1.851-2.023.223-.574.57-.75 1.183-1.088q3.934-2.185 7.881-4.35c.814-.446 1.59-.429 2.336.06.42.26.727.67.857 1.148.051.197.077.557.073 1.072v8.481c0 .887-.587 1.736-1.535 1.77-.257.009-.514.009-.75-.086a2.03 2.03 0 0 1-1.144-1.757V11.25c0-.442-.06-.772-.45-.986a.4.4 0 0 0-.167-.047"/><path fill="url(#d)" d="M9.981 18.107c-.831-.19-1.6-.59-2.233-1.161-.141-.129-.3-.275-.334-.455-.06-.3.163-.445.407-.582l2.135-1.192c.265-.15.608-.06.728.214.03.065.03.172.03.33v2.255q0 .29-.077.411c-.141.227-.394.244-.656.18"/><path fill="url(#e)" d="M13.046 10.213c-.326-.03-.493-.03-.815.15q-2.402 1.324-4.8 2.657-.36.22-.767.334c-1.213.253-2.288-.9-1.851-2.023.158-.407.381-.613.715-.823 2.272-.741 5.915-1.508 7.518-.3z"/><path fill="url(#f)" d="m12.96 10.204.137.013a.5.5 0 0 1 .172.043c.342.193.428.446.441.806.056-3.446-2.683-3.202-3.686-3.052l-4.028 2.229-.06.034a7 7 0 0 0-.399.227c2.25-.741 5.837-1.5 7.423-.3"/></g><defs><linearGradient id="b" x1="4.466" x2="29.207" y1="4.161" y2="32.58" gradientUnits="userSpaceOnUse"><stop stop-color="#1A1E21"/><stop offset="1" stop-color="#06060A"/></linearGradient><linearGradient id="c" x1="10.928" x2="10.928" y1="5.571" y2="18.428" gradientUnits="userSpaceOnUse"><stop stop-color="#4AF78B"/><stop offset="1" stop-color="#23BFEF"/></linearGradient><linearGradient id="d" x1="7.71" x2="10.243" y1="15.75" y2="17.7" gradientUnits="userSpaceOnUse"><stop stop-color="#3CD1C6"/><stop offset="1" stop-color="#34C2D8"/></linearGradient><linearGradient id="e" x1="10.431" x2="5.837" y1="9.578" y2="13.281" gradientUnits="userSpaceOnUse"><stop stop-color="#226A82"/><stop offset="1" stop-color="#55DEB0"/></linearGradient><linearGradient id="f" x1="11.267" x2="9.771" y1="7.941" y2="11.743" gradientUnits="userSpaceOnUse"><stop stop-color="#2A687F"/><stop offset="1" stop-color="#6CF7B6"/></linearGradient><clipPath id="a"><path fill="#fff" d="M0 0h24v24H0z"/></clipPath></defs></svg>
